svg/transport/car_3_line.svg

<?xml version="1.0" encoding="UTF-8"?>
<svg width="24px" height="24px" viewBox="0 0 24 24" version="1.1" xmlns="http://www.w3.org/2000/svg" xmlns:xlink="http://www.w3.org/1999/xlink">
    <title>car_line</title>
    <g id="页面-1" stroke="none" stroke-width="1" fill="none" fill-rule="evenodd">
        <g id="Transport" transform="translate(-384.000000, -96.000000)" fill-rule="nonzero">
            <g id="car_line" transform="translate(384.000000, 96.000000)">
                 <path d="M24,0 L24,24 L0,24 L0,0 L24,0 Z M12.5934901,23.257841 L12.5819402,23.2595131 L12.5108777,23.2950439 L12.4918791,23.2987469 L12.4918791,23.2987469 L12.4767152,23.2950439 L12.4056548,23.2595131 C12.3958229,23.2563662 12.3870493,23.2590235 12.3821421,23.2649074 L12.3780323,23.275831 L12.360941,23.7031097 L12.3658947,23.7234994 L12.3769048,23.7357139 L12.4804777,23.8096931 L12.4953491,23.8136134 L12.4953491,23.8136134 L12.5071152,23.8096931 L12.6106902,23.7357139 L12.6232938,23.7196733 L12.6232938,23.7196733 L12.6266527,23.7031097 L12.609561,23.275831 C12.6075724,23.2657013 12.6010112,23.2592993 12.5934901,23.257841 L12.5934901,23.257841 Z M12.8583906,23.1452862 L12.8445485,23.1473072 L12.6598443,23.2396597 L12.6498822,23.2499052 L12.6498822,23.2499052 L12.6471943,23.2611114 L12.6650943,23.6906389 L12.6699349,23.7034178 L12.6699349,23.7034178 L12.678386,23.7104931 L12.8793402,23.8032389 C12.8914285,23.8068999 12.9022333,23.8029875 12.9078286,23.7952264 L12.9118235,23.7811639 L12.8776777,23.1665331 C12.8752882,23.1545897 12.8674102,23.1470016 12.8583906,23.1452862 L12.8583906,23.1452862 Z M12.1430473,23.1473072 C12.1332178,23.1423925 12.1221763,23.1452606 12.1156365,23.1525954 L12.1099173,23.1665331 L12.0757714,23.7811639 C12.0751323,23.7926639 12.0828099,23.8018602 12.0926481,23.8045676 L12.108256,23.8032389 L12.3092106,23.7104931 L12.3186497,23.7024347 L12.3186497,23.7024347 L12.3225043,23.6906389 L12.340401,23.2611114 L12.337245,23.2485176 L12.337245,23.2485176 L12.3277531,23.2396597 L12.1430473,23.1473072 Z" id="MingCute" fill-rule="nonzero"></path>
                <path d="M15.8394,4 C16.8486187,4 17.7854156,4.50700586 18.3386578,5.34056714 L18.4441,5.51158 L20.4375,9 L21.6,9 C21.7932875,9 21.9545719,9.13711578 21.9918729,9.31938717 L22,9.4 L22,9.87538 C22,10.205788 21.797662,10.4980288 21.4975246,10.6180539 L21.3703,10.6574 C21.74497,11.43536 21.911956,12.29756 21.8544181,13.1598005 L21.8269,13.4471 L21.1018,19.2481 C20.9832842,20.1962263 20.2134476,20.9202452 19.2750735,20.9938313 L19.1172,21 L18,21 C16.9456091,21 16.0818322,20.18415 16.0054856,19.1492661 L16,19 L8,19 C8,20.0543909 7.18412267,20.9181678 6.14926241,20.9945144 L6,21 L4.88278,21 C3.92722632,21 3.11332615,20.3258825 2.92393067,19.4039729 L2.89823,19.2481 L2.1731,13.4471 C2.065451,12.58589 2.1842051,11.715365 2.51250053,10.9197245 L2.62967,10.6574 L2.60597,10.6515 C2.285453,10.5714 2.0510309,10.30419 2.00735165,9.98391852 L2,9.87538 L2,9.4 C2,9.20670375 2.13711578,9.04542594 2.31938717,9.00812674 L2.4,9 L3.56253,9 L5.55592,5.51158 C6.0566575,4.63528 6.96161277,4.07350539 7.95985076,4.00670661 L8.16065,4 L15.8394,4 Z M19.7592,12.0355 C19.2657231,12.5742077 18.5719243,12.9402006 17.7592091,12.9933196 L17.5536,13 L6.44636,13 C5.54512,13 4.77543,12.6191 4.24076,12.0355 C4.158424,12.33654 4.1232816,12.649676 4.13760608,12.9635928 L4.15766,13.199 L4.88278,19 L6,19 L6,18 C6,17.48715 6.38604429,17.0644908 6.88337975,17.0067275 L7,17 L17,17 C17.51285,17 17.9355092,17.386027 17.9932725,17.8833761 L18,18 L18,19 L19.1172,19 L19.8423,13.199 C19.8913,12.807 19.8622,12.4118 19.7592,12.0355 Z M5.73757,13.8983 L8.48023,15.3793 C8.85325,15.5808 8.69778,16.1479 8.27418,16.131 L5.96003,16.0384 C5.42372,16.0169 5,15.5759 5,15.0392 L5,14.3382 C5,13.9596 5.40444,13.7184 5.73757,13.8983 Z M19,14.3382 L19,15.0392 C19,15.5759 18.5763,16.0169 18.04,16.0384 L15.7258,16.131 C15.3022,16.1479 15.1467,15.5808 15.5198,15.3793 L18.2624,13.8983 C18.5956,13.7184 19,13.9596 19,14.3382 Z M15.8394,6 L8.16065,6 C7.80179,6 7.47044,6.19229 7.2924,6.50386 L5.57812,9.50386 C5.19756,10.1705 5.67868,11 6.44636,11 L17.5536,11 C18.3215,11 18.8028,10.1705 18.4219,9.50386 L16.7076,6.50386 C16.5296,6.19229 16.1982,6 15.8394,6 Z" id="形状" fill="#09244B"></path>
            </g>
        </g>
    </g>
</svg>

<svg xmlns="http://www.w3.org/2000/svg" width="24" height="24"><g fill="none" fill-rule="nonzero"><path d="M24 0v24H0V0h24ZM12.593 23.258l-.011.002-.071.035-.02.004-.014-.004-.071-.035c-.01-.004-.019-.001-.024.005l-.004.01-.017.428.005.02.01.013.104.074.015.004.012-.004.104-.074.012-.016.004-.017-.017-.427c-.002-.01-.009-.017-.017-.018Zm.265-.113-.013.002-.185.093-.01.01-.003.011.018.43.005.012.008.007.201.093c.012.004.023 0 .029-.008l.004-.014-.034-.614c-.003-.012-.01-.02-.02-.022Zm-.715.002a.023.023 0 0 0-.027.006l-.006.014-.034.614c0 .012.007.02.017.024l.015-.002.201-.093.01-.008.004-.011.017-.43-.003-.012-.01-.01-.184-.092Z"/><path fill="#09244B" d="M15.84 4a3 3 0 0 1 2.499 1.34l.105.172L20.438 9H21.6a.4.4 0 0 1 .392.32L22 9.4v.475a.8.8 0 0 1-.502.743l-.128.04a5 5 0 0 1 .484 2.502l-.027.287-.725 5.801a2 2 0 0 1-1.827 1.746l-.158.006H18a2 2 0 0 1-1.995-1.85L16 19H8a2 2 0 0 1-1.85 1.995L6 21H4.883a2 2 0 0 1-1.96-1.596l-.025-.156-.725-5.8a5 5 0 0 1 .34-2.528l.117-.263-.024-.005a.8.8 0 0 1-.599-.668L2 9.875V9.4a.4.4 0 0 1 .32-.392L2.4 9h1.163l1.993-3.488A3 3 0 0 1 7.96 4.007L8.16 4h7.68Zm3.92 8.036a2.953 2.953 0 0 1-2 .957l-.206.007H6.446a2.96 2.96 0 0 1-2.205-.964 3 3 0 0 0-.103.928l.02.235L4.883 19H6v-1a1 1 0 0 1 .883-.993L7 17h10a1 1 0 0 1 .993.883L18 18v1h1.117l.725-5.801c.05-.392.02-.787-.083-1.163ZM5.737 13.898 8.48 15.38c.373.202.218.769-.206.752l-2.314-.093A1 1 0 0 1 5 15.04v-.7a.5.5 0 0 1 .738-.44Zm13.262.44v.701a1 1 0 0 1-.96 1l-2.314.092c-.424.017-.58-.55-.206-.752l2.742-1.48a.5.5 0 0 1 .738.44ZM15.84 6H8.16a1 1 0 0 0-.868.504l-1.714 3A1 1 0 0 0 6.446 11h11.108a1 1 0 0 0 .868-1.496l-1.714-3A1 1 0 0 0 15.839 6Z"/></g></svg>
